CommonLib.Web/CommonLib.Web/wwwroot/icons/duotone/dice-six.svg

<svg xmlns="http://www.w3.org/2000/svg" viewBox="0 0 448 512"><!--! Font Awesome Pro 6.2.0 by @fontawesome - https://fontawesome.com License - https://fontawesome.com/license (Commercial License) Copyright 2022 Fonticons, Inc. --><defs><style>.fa-secondary{opacity:.4}</style></defs><path class="fa-primary" d="M128 320c-17.62 0-32 14.38-32 32s14.38 32 32 32s32-14.38 32-32S145.6 320 128 320zM320 192c17.62 0 32-14.38 32-32s-14.38-32-32-32s-32 14.38-32 32S302.4 192 320 192zM128 224C110.4 224 96 238.4 96 256s14.38 32 32 32s32-14.38 32-32S145.6 224 128 224zM320 320c-17.62 0-32 14.38-32 32s14.38 32 32 32s32-14.38 32-32S337.6 320 320 320zM320 224c-17.62 0-32 14.38-32 32s14.38 32 32 32s32-14.38 32-32S337.6 224 320 224zM128 128C110.4 128 96 142.4 96 160s14.38 32 32 32s32-14.38 32-32S145.6 128 128 128z"/><path class="fa-secondary" d="M384 32H64C28.62 32 0 60.62 0 96v320c0 35.38 28.62 64 64 64h320c35.38 0 64-28.62 64-64V96C448 60.62 419.4 32 384 32zM128 384c-17.62 0-32-14.38-32-32s14.38-32 32-32s32 14.38 32 32S145.6 384 128 384zM128 288C110.4 288 96 273.6 96 256s14.38-32 32-32s32 14.38 32 32S145.6 288 128 288zM128 192C110.4 192 96 177.6 96 160s14.38-32 32-32s32 14.38 32 32S145.6 192 128 192zM320 384c-17.62 0-32-14.38-32-32s14.38-32 32-32s32 14.38 32 32S337.6 384 320 384zM320 288c-17.62 0-32-14.38-32-32s14.38-32 32-32s32 14.38 32 32S337.6 288 320 288zM320 192c-17.62 0-32-14.38-32-32s14.38-32 32-32s32 14.38 32 32S337.6 192 320 192z"/></svg>

<svg xmlns="http://www.w3.org/2000/svg" viewBox="0 0 448 512"><defs><style>.fa-secondary{opacity:.4}</style></defs><path d="M384 32H64A64 64 0 0 0 0 96v320a64 64 0 0 0 64 64h320a64 64 0 0 0 64-64V96a64 64 0 0 0-64-64zM128 384a32 32 0 1 1 32-32 32 32 0 0 1-32 32zm0-96a32 32 0 1 1 32-32 32 32 0 0 1-32 32zm0-96a32 32 0 1 1 32-32 32 32 0 0 1-32 32zm192 192a32 32 0 1 1 32-32 32 32 0 0 1-32 32zm0-96a32 32 0 1 1 32-32 32 32 0 0 1-32 32zm0-96a32 32 0 1 1 32-32 32 32 0 0 1-32 32z" class="fa-secondary"/><path d="M320 192a32 32 0 1 0-32-32 32 32 0 0 0 32 32zm0 32a32 32 0 1 0 32 32 32 32 0 0 0-32-32zm0 96a32 32 0 1 0 32 32 32 32 0 0 0-32-32zM128 128a32 32 0 1 0 32 32 32 32 0 0 0-32-32zm0 96a32 32 0 1 0 32 32 32 32 0 0 0-32-32zm0 96a32 32 0 1 0 32 32 32 32 0 0 0-32-32z" class="fa-primary"/></svg>
